X:102
T:Cock Robin's Testament - a different Air
Z:Jack Campin - http://www.campin.me.uk
S:Blaikie MS (NLS MS.1578) p30, Blaikie #96
M:C
L:1/8
V:1 midi program 1 74
V:2 midi program 1 46 bass middle = d transpose -24
Q:1/4=100
K:G
[V:1]   B2  A>G G2  GB|cc`dB  d3 B|cc`dB  cB`AB|cB`A>G G2z
[V:2]   g2  d2  G2  g2|g2 g2  g2g2|g2 g2  g2 g2|c2 d2  g3
%
[V:1] G|B<B`A>G G>G`GB|cc`d>B d3 B|cc`d>B cB`AB|dB`A>G G2Gz||
[V:2] z|g2  d2  G2  G2|g2 g2  g2g2|g2 g2  g2 g2|g2 d2  G2g2||
%
[V:1] [Q:1/4=120 "Quicker"] B/G/G/G/ GG GG`GG|cc`cc c2 [Q:1/4=100 "Tempo primo"] BA|Bc`d>e dB`AB|ce`dB A2 Gz|]
[V:2] [Q:1/4=120          ] G2       g2 g2 g2|a2`f2 d2 [Q:1/4=100              ] d2|g2 g2  g2 g2|c2 d2 d2 gz|]
W:Transcription (c) Jack Campin 2009, no mirroring or republication without permission

